!!!OTL: WIE HOCH IST DOCH DER HIMMEL
!!!ARE: Europa, Mitteleuropa, Deutschland
!!!SCT: E0670
!!!YEM: Copyright 1995, estate of Helmut Schaffrath.
**kern
*ICvox
*Ivox
*M6/8
*k[b-e-a-]
*E-:
{8b-
=1
8b-
8ee-
8ee-
8ee-
8g
8g
=2
4g
8b-
4b-}
{8e-
=3
4e-
8e-
4cc
8b-
=4
4.b-
4a-}
{8a-
=5
8a-
8ff
8ff
8ff
8f
8f
=6
8f
8cc
8cc
8cc
8d}
{8d
=7
8d
8a-
8a-
8a-
8B-
8a-
=8
4.g
4e-}
==
!!!AGN: Liebes - Lied
!!!ONB: ESAC (Essen Associative Code) Database: ERK2
!!!AMT: compound duple
!!!AIN: vox
!!!EED: Helmut Schaffrath
!!!EEV: 1.0
*-
